!!!OTL: ACH WENNS NUR DER KOENIG AUCH WUESST
!!!ARE: Europa, Mitteleuropa, Deutschland
!!!SCT: B0578
!!!YEM: Copyright 1995, estate of Helmut Schaffrath.
**kern
*ICvox
*Ivox
*M6/8
*k[]
*C:
{8G
=1
8.G
16A
8G
8f
8A
8B
=2
4c
4.r}
{8c
=3
8B
8A
8B
8c
8E
8F#
=4
4G
4.r}
{16G
16G
=5
8.A
16G
8F
8.B
16A
8G
=6
4c
8r}
{4.d
=7
8e
8B
8c
8.d
16A
8B
=8
4.c
4r}
==
!!!AGN: Staende -, Soldaten - Lied
!!!ONB: ESAC (Essen Associative Code) Database: BOEHME
!!!AMT: compound duple
!!!AIN: vox
!!!EED: Helmut Schaffrath
!!!EEV: 1.0
*-
